X:203
T: HERBEI HERBEI ZU MEINEM SANG
N: B0687
O: Europa, Mitteleuropa, Deutschland, Weimar
R: Drehorgel -, Erzaehl -, Scherz - Lied
M: 2/4
L: 1/16
K: D
A2 | F2A2A2A2 | F2A2A2
A2 | d2c2B2A2 | A4G2
G2 | E2G2G2G2 | E2G2G2
G2 | c2B2A2G2 | G4F2
A2 | F2A2A2A2 | F2A2A2
A2 | d2c2B2A2 | A4G2
G2 | E2G2G2G2 | E2G2G2
G2 | c2B2A2G2 | G4F2z2 |
d4d4 | B2G2G4 |
B2G2d2B2 | B2A2A2
A2 | A2G2B2G2 | G3FF2
F2 | F2E2G2=C2 | E4D2z2 |
d4d4 | B2G2G4 |
B2G2d2B2 | B2A2A2
A2 | A2G2B2G2 | G3FF2
F2 | F2E2G2=C2 | E4D2

@@@ Tune index: 2421
